src/assets/images/icons/icon-phone.svg

<svg fill="none" height="20" viewBox="0 0 18 20" width="18" xmlns="http://www.w3.org/2000/svg" xmlns:xlink="http://www.w3.org/1999/xlink"><clipPath id="a"><path d="m0 .949768h18v18.647h-18z"/></clipPath><g clip-path="url(#a)" stroke="#d7d7d7" stroke-linecap="round" stroke-linejoin="round"><path d="m14.2234 13.8549-.8797-.9114c-.4395-.4553-1.152-.4553-1.5908 0l-.6915.7164c-.1545.16-.3885.2137-.588.1228-1.002-.4546-1.992-1.1437-2.87475-2.0582-.879-.9106-1.542-1.93154-1.9815-2.96567-.0915-.21366-.03825-.46462.1215-.63011l.6195-.64177c.50325-.52134.50325-1.25868.06375-1.71398l-.87975-.91137c-.58575-.60681-1.53525-.60681-2.121 0l-.489.5058c-.55575.57573-.7875 1.4063-.6375 2.22988.3705 2.03019 1.509 4.25312 3.34575 6.15582 1.83675 1.9028 3.9825 3.0822 5.9423 3.4661.795.1553 1.5967-.0847 2.1524-.6605l.4883-.5058c.5858-.6068.5858-1.5904 0-2.198z"/><path d="m9.75 6.38121c.7733-.01088 1.5503.28592 2.1405.89739"/><path d="m14.0115 5.08147c-1.1768-1.21905-2.7195-1.82897-4.2615-1.82897"/><path d="m12.7569 9.49631c.0105-.80104-.276-1.60597-.8663-2.21744"/><path d="m14.0107 5.0816c1.1768 1.21905 1.7655 2.81726 1.7655 4.41469"/></g></svg>

<svg width="18" height="20" viewBox="0 0 18 20" fill="none" xmlns="http://www.w3.org/2000/svg">
<g clip-path="url(#clip0_118_1383)">
<path d="M14.2234 13.8549L13.3437 12.9435C12.9042 12.4882 12.1917 12.4882 11.7529 12.9435L11.0614 13.6599C10.9069 13.8199 10.6729 13.8736 10.4734 13.7827C9.4714 13.3281 8.4814 12.639 7.59865 11.7245C6.71965 10.8139 6.05665 9.79296 5.61715 8.75883C5.52565 8.54517 5.5789 8.29421 5.73865 8.12872L6.35815 7.48695C6.8614 6.96561 6.8614 6.22827 6.4219 5.77297L5.54215 4.8616C4.9564 4.25479 4.0069 4.25479 3.42115 4.8616L2.93215 5.3674C2.3764 5.94313 2.14465 6.7737 2.29465 7.59728C2.66515 9.62747 3.80365 11.8504 5.6404 13.7531C7.47715 15.6559 9.6229 16.8353 11.5827 17.2192C12.3777 17.3745 13.1794 17.1345 13.7351 16.5587L14.2234 16.0529C14.8092 15.4461 14.8092 14.4625 14.2234 13.8549V13.8549Z" stroke="#D7D7D7" stroke-linecap="round" stroke-linejoin="round"/>
<path d="M9.75 6.38121C10.5233 6.37033 11.3003 6.66713 11.8905 7.2786" stroke="#D7D7D7" stroke-linecap="round" stroke-linejoin="round"/>
<path d="M14.0115 5.08147C12.8347 3.86242 11.292 3.2525 9.75 3.2525" stroke="#D7D7D7" stroke-linecap="round" stroke-linejoin="round"/>
<path d="M12.7569 9.49631C12.7674 8.69527 12.4809 7.89034 11.8906 7.27887" stroke="#D7D7D7" stroke-linecap="round" stroke-linejoin="round"/>
<path d="M14.0107 5.0816C15.1875 6.30065 15.7762 7.89886 15.7762 9.49629" stroke="#D7D7D7" stroke-linecap="round" stroke-linejoin="round"/>
</g>
<defs>
<clipPath id="clip0_118_1383">
<rect width="18" height="18.647" fill="white" transform="translate(0 0.949768)"/>
</clipPath>
</defs>
</svg>
